X: 36322
T: Seamus Thompson's
R: reel
M: 4/4
K: Gmajor
|:G2EG DGG2|BdGd efga|bgg2 agef|gedB c2BA|
G2EG DGG2|BdGd efga|bgg2 ageg|1 dBAB G2EF:|2 dBAB G3A||
BddB AdBA|G2DG Bdga|bgeg dgg2|edBG A2BA|
GDEG E2GE|DB,B,2 DEGA|Bdd2 edge|dBAB G3A|
BddB AdBA|G2DG Bdba|gdd2 egdg|edBG A2BA|
(3GAG FG EFGE|DB,B,2 DEGA|Bdd2 edge|dBAB G4||

